.local/share/icons/Gruvbox-Plus-Dark/mimetypes/scalable/application-afdesigner.svg

<svg width="256" height="256" viewBox="0 0 256 256" fill="none" xmlns="http://www.w3.org/2000/svg">
<g opacity="0.4" filter="url(#filter0_f)">
<path d="M55.0839 15.5636H155.608L216.009 75.7129L216.011 224.609C216.011 233.52 208.749 240.737 199.838 240.737H55.0838C46.1734 240.737 39 233.564 39 224.654V31.6474C39 22.737 46.1734 15.5636 55.0838 15.5636H55.0839Z" fill="#282828"/>
</g>
<path d="M55.0839 15H155.608L216.009 75.1493L216.011 224.045C216.011 232.956 208.749 240.174 199.838 240.174H55.0838C46.1734 240.174 39 233 39 224.09V31.0838C39 22.1734 46.1734 15 55.0838 15H55.0839Z" fill="#ebdbb2"/>
<path fill-rule="evenodd" clip-rule="evenodd" d="M155.608 20.3191H55.0839C49.1112 20.3191 44.3191 25.1111 44.3191 31.0838V224.09C44.3191 230.063 49.1111 234.855 55.0838 234.855H199.838C205.83 234.855 210.692 229.999 210.692 224.046V75.1493L155.608 20.3191ZM155.608 15H55.0839C46.1735 15 39 22.1734 39 31.0838V224.09C39 233 46.1734 240.174 55.0838 240.174H199.838C208.749 240.174 216.011 232.956 216.011 224.045L216.009 75.1493L155.608 15Z" fill="url(#paint0_linear)"/>
<g opacity="0.4" filter="url(#filter1_f)">
<path d="M118.381 84.202L110.876 96.8843L114.013 102.212L98.9218 128.448L89.5935 133.956L79.6854 150.552L87.5218 163.721L90.2636 163.563L92.5937 167.635L134.428 167.648L137.627 173.031L139.919 173.055L136.761 167.648L169.55 167.657L178 153.87L139.499 86.6059L134.774 86.6951L133.69 84.5314L118.381 84.202ZM134.712 89.7987L147.369 111.61H122.138L134.712 89.7987ZM121.063 113.473H148.452L171.888 153.86L128.563 153.608L113.145 127.207L121.063 113.473ZM111.987 129.216L120.407 143.634H103.675L111.987 129.216ZM102.601 145.498H121.494L130.753 161.353L93.5694 161.163L102.601 145.498Z" fill="#282828"/>
</g>
<path d="M91.8841 159.961L133.027 88.5965L170.203 152.658L126.454 152.404L131.335 160.162L91.8841 159.961Z" fill="url(#paint1_linear)"/>
<path d="M116.695 83L109.191 95.6823L112.327 101.01L97.2364 127.246L87.9081 132.754L78 149.351L85.8364 162.519L88.5782 162.361L90.9084 166.433L132.743 166.445L135.942 171.829L138.233 171.853L135.076 166.446L167.864 166.455L176.315 152.668L137.813 85.4039L133.088 85.493L132.005 83.3294L116.695 83ZM133.027 88.5966L145.685 110.408H120.453L133.027 88.5966ZM119.378 112.272H146.766L170.203 152.658L126.877 152.406L111.46 126.005L119.378 112.272ZM110.301 128.014L118.721 142.432H101.99L110.301 128.014ZM100.915 144.296H119.809L129.067 160.15L91.884 159.961L100.915 144.296Z" fill="url(#paint2_linear)"/>
<path opacity="0.25" d="M155.608 17V61.2306C155.608 70.141 162.867 77.1605 171.777 77.1605L216.009 77.1493V75.1493L155.608 17Z" fill="#282828"/>
<path d="M155.608 15V59.2306C155.608 68.141 162.867 75.1605 171.777 75.1605L216.009 75.1493L155.608 15Z" fill="url(#paint3_linear)"/>
<defs>
<filter id="filter0_f" x="23.8778" y="0.441412" width="207.255" height="255.418" filterUnits="userSpaceOnUse" color-interpolation-filters="sRGB">
<feFlood flood-opacity="0" result="BackgroundImageFix"/>
<feBlend mode="normal" in="SourceGraphic" in2="BackgroundImageFix" result="shape"/>
<feGaussianBlur stdDeviation="7.5611" result="effect1_foregroundBlur"/>
</filter>
<filter id="filter1_f" x="69.6854" y="74.202" width="118.315" height="108.853" filterUnits="userSpaceOnUse" color-interpolation-filters="sRGB">
<feFlood flood-opacity="0" result="BackgroundImageFix"/>
<feBlend mode="normal" in="SourceGraphic" in2="BackgroundImageFix" result="shape"/>
<feGaussianBlur stdDeviation="5" result="effect1_foregroundBlur"/>
</filter>
<linearGradient id="paint0_linear" x1="39" y1="15" x2="39" y2="240.174" gradientUnits="userSpaceOnUse">
<stop offset="1e-07" stop-color="#b16286"/>
<stop offset="1" stop-color="#8f3f71"/>
</linearGradient>
<linearGradient id="paint1_linear" x1="130.56" y1="88.569" x2="130.723" y2="160.398" gradientUnits="userSpaceOnUse">
<stop stop-color="#83a598"/>
<stop offset="1" stop-color="#458588"/>
</linearGradient>
<linearGradient id="paint2_linear" x1="127.157" y1="83.0001" x2="127.157" y2="171.853" gradientUnits="userSpaceOnUse">
<stop stop-color="#504945"/>
<stop offset="1" stop-color="#282828"/>
</linearGradient>
<linearGradient id="paint3_linear" x1="196" y1="29" x2="156" y2="75" gradientUnits="userSpaceOnUse">
<stop offset="1e-07" stop-color="#b16286"/>
<stop offset="1" stop-color="#8f3f71"/>
</linearGradient>
</defs>
</svg>

<svg width="256" height="256" fill="none" version="1.1" viewBox="0 0 256 256" xmlns="http://www.w3.org/2000/svg">
  <path d="m55.08 15h100.5l60.4 60.15 2e-3 148.9c0 8.911-7.262 16.13-16.17 16.13h-144.8c-8.91 0-16.08-7.174-16.08-16.08v-193c0-8.91 7.173-16.08 16.08-16.08h1e-4z" fill="#ebdbb2"/>
  <path d="m155.6 20.32h-100.5c-5.973 0-10.76 4.792-10.76 10.76v193c0 5.973 4.792 10.76 10.76 10.76h144.8c5.992 0 10.85-4.856 10.85-10.81v-148.9l-55.08-54.83zm0-5.319h-100.5c-8.91 0-16.08 7.173-16.08 16.08v193c0 8.91 7.173 16.08 16.08 16.08h144.8c8.911 0 16.17-7.218 16.17-16.13l-2e-3 -148.9-60.4-60.15z" clip-rule="evenodd" fill="url(#paint0_linear)" fill-rule="evenodd"/>
  <g filter="url(#filter1_f)" opacity=".4">
    <path d="m118.4 84.2-7.505 12.68 3.137 5.328-15.09 26.24-9.328 5.508-9.908 16.6 7.836 13.17 2.742-0.158 2.33 4.072 41.83 0.013 3.199 5.383 2.292 0.024-3.158-5.407 32.79 9e-3 8.45-13.79-38.5-67.26-4.725 0.0892-1.084-2.164-15.31-0.3294zm16.33 5.597 12.66 21.81h-25.23l12.57-21.81zm-13.65 23.67h27.39l23.44 40.39-43.32-0.252-15.42-26.4 7.918-13.73zm-9.076 15.74 8.42 14.42h-16.73l8.312-14.42zm-9.386 16.28h18.89l9.259 15.86-37.18-0.19 9.032-15.66z" fill="#282828"/>
  </g>
  <path d="m91.88 160 41.14-71.36 37.18 64.06-43.75-0.254 4.881 7.758-39.45-0.201z" fill="url(#paint1_linear)"/>
  <path d="m116.7 83-7.504 12.68 3.136 5.328-15.09 26.24-9.328 5.508-9.908 16.6 7.836 13.17 2.742-0.158 2.33 4.072 41.83 0.012 3.199 5.384 2.291 0.024-3.157-5.407 32.79 9e-3 8.451-13.79-38.5-67.26-4.725 0.0891-1.083-2.164-15.31-0.3294zm16.33 5.597 12.66 21.81h-25.23l12.57-21.81zm-13.65 23.68h27.39l23.44 40.39-43.33-0.252-15.42-26.4 7.918-13.73zm-9.077 15.74 8.42 14.42h-16.73l8.311-14.42zm-9.386 16.28h18.89l9.258 15.85-37.18-0.189 9.031-15.66z" fill="url(#paint2_linear)"/>
  <path d="m155.6 17v44.23c0 8.91 7.259 15.93 16.17 15.93l44.23-0.0112v-2l-60.4-58.15z" fill="#282828" opacity=".25"/>
  <path d="m155.6 15v44.23c0 8.91 7.259 15.93 16.17 15.93l44.23-0.0112-60.4-60.15z" fill="url(#paint3_linear)"/>
  <defs>
    <linearGradient id="paint0_linear" x1="39" x2="39" y1="15" y2="240.2" gradientUnits="userSpaceOnUse">
      <stop stop-color="#b16286" offset="1e-7"/>
      <stop stop-color="#8f3f71" offset="1"/>
    </linearGradient>
    <linearGradient id="paint1_linear" x1="130.6" x2="130.7" y1="88.57" y2="160.4" gradientUnits="userSpaceOnUse">
      <stop stop-color="#83a598" offset="0"/>
      <stop stop-color="#458588" offset="1"/>
    </linearGradient>
    <linearGradient id="paint2_linear" x1="127.2" x2="127.2" y1="83" y2="171.9" gradientUnits="userSpaceOnUse">
      <stop stop-color="#504945" offset="0"/>
      <stop stop-color="#282828" offset="1"/>
    </linearGradient>
    <linearGradient id="paint3_linear" x1="196" x2="156" y1="29" y2="75" gradientUnits="userSpaceOnUse">
      <stop stop-color="#b16286" offset="1e-7"/>
      <stop stop-color="#8f3f71" offset="1"/>
    </linearGradient>
  </defs>
</svg>
